X: 15764
T: Good Friday
R: jig
M: 6/8
K: Dmajor
E|DFE DFA|def edB|AFA dAF|EFE EDE|
FEF DFA|dfd edB|AFA dAF|1 EFE D2:|2 Adc d2e||
faf gbg|afd edB|AFA Bcd|egf ede|
faf gbg|afd edB|AFA dAF|1 Adc d2e:|2 EFE D2||

